X:1
T:Gr\aatvalsen
C:Ale M\"oller
O:Sweden
R:Waltz
N:transcribed 6/89 by Andrea Hoag (her notes say harmony by Per Gudmundson)
Z:copied by Bob Wyttenbach from Buffalo Gap Scandi Week 2000 tunebook
M:3/4
L:1/8
%Q:1/4=160
K:Dmix
%P:A
FG|:"D"A4A2|A4A2|A3GF2|D4GA|"G"B4d2|c4B2|"D"A6-|A3FGA|
"G"B4d2|c4B2|"D"A3GF2|D3FAB|"C"A4AB|A3GF2|1"D"[D6F6]|D4FG:|2"D"[D6F6]| F2G2A2||
%P:B
|: "G"B4B2|B3AG2|"C"c4B2|"D"A3FGA|"G"B4d2|"C"e4d2|"D"A6-|A3FGA|
"G"B4d2|c4B2|"D"A3GF2|D3AAB|"C"A4AB|A3GF2|1"D"[D6F6] | F2G2A2 :|2"D"[D6F6] | [D4F4]|]
